!!!COM:	Beethoven
!!!OTL:	op.18 no.1 mvmnt.3
**kern	**kern	**kern	**kern	**dynam
*part4	*part3	*part2	*part1	*part1
*staff4	*staff3	*staff2	*staff1	*
*I"Cello	*I"Viola	*I"Violin II	*I"Violin I	*
*I'Vc.	*I'Vla.	*I'Vln. II	*I'Vln. I	*
*clefF4	*clefC3	*clefG2	*clefG2	*
*k[b-]	*k[b-]	*k[b-]	*k[b-]	*
*F:	*F:	*F:	*F:	*
*M3/4	*M3/4	*M3/4	*M3/4	*
=1	=1	=1	=1	=1
4FF'	2.A	[2.c	[2.f	.
4AA'	.	.	.	.
4BB-'	.	.	.	.
=2	=2	=2	=2	=2
(<2C	2G	2c]	4f]	.
.	.	.	4e'	.
8BB-L	4c'	4d'	4f#X'	.
8AAJ)	.	.	.	.
=3	=3	=3	=3	=3
4GG'	2.B-	[2.d	[2.g	.
4BB-'	.	.	.	.
4C'	.	.	.	.
=4	=4	=4	=4	=4
(2D	2A	2d]	4g]	.
.	.	.	4f#X'	.
8CL	4d'	4e'	4g#X'	.
8BBnJ)	.	.	.	.
=5	=5	=5	=5	=5
(>4AA	(2c	(<2e	(>2a	.
4C	.	.	.	.
4E	[4e)	4g#X	4bn	.
=6	=6	=6	=6	=6
4A')	4e]	4a')	4cc	.
4r	4r	4r	4r	.
4r	4r	4r	4r	.
=7	=7	=7	=7	=7
(2.G	(>2.f	2.bnt	2.ddT	.
.	.	(16qqa/LL	16qqcc/LL	.
.	.	16qqb/JJ)	16qqdd/JJ	.
=8	=8	=8	=8	=8
4c)	4e)	4cc	4ee	.
4r	4r	4r	4r	.
4r	4r	4r	4r	.
=9	=9	=9	=9	=9
(2.GG	2.FT	2.Bnt	2.dT	.
.	(16qqE/LL	(16qqA/LL	16qqc/LL	.
.	16qqF/JJ)	16qqB/JJ)	16qqd/JJ	.
=10	=10	=10	=10	=10
4C)	4E	4c	4c	.
4r	4r	4r	4r	.
4r	4r	4r	4r	.
=11:|!	=11:|!	=11:|!	=11:|!	=11:|!
(2A-X	(>2e-X~	(<2c	(2cc	.
4c)	4e-')	4a-X)	4ee-X)	.
=12	=12	=12	=12	=12
(>2B-	(2e-X	(<2g	(4ee-X	.
.	.	.	4dd-X)	.
4E-X)	4B-)	4g')	4dd-'	.
=13	=13	=13	=13	=13
2A-X	(4B-	(<4g	(4dd-X	.
.	4A-X)	4a-X)	4cc)	.
4AA-X	4A-'	4a-'	4cc'	.
=14	=14	=14	=14	=14
(>2F	(2c~	(<2c	(2a-X	.
4A-X)	4c')	4f')	4cc)	.
=15	=15	=15	=15	=15
(>2G	(>2c~	(2e	(4cc	.
.	.	.	4b-)	.
4C)	4c')	4e')	4b-'	.
=16	=16	=16	=16	=16
2F	2c	(<4e	(4b-	.
.	.	4f)	4a-X)	.
4FF	4c'	4f'	4a-'	.
=17	=17	=17	=17	=17
2.r	4d-X'	[2.dd-X	[2.ff	.
.	4f'	.	.	.
.	4g-X'	.	.	.
=18	=18	=18	=18	=18
(>2A-X	4a-X'	4dd-]	4ff]	.
.	4r	4cc'	4ee-X'	.
8G-XL	4r	4ddn'	4ff'	.
8FJ)	.	.	.	.
=19	=19	=19	=19	=19
4E-X	4e-X'	[2.ee-X	[2.gg-X	.
4r	4g-X'	.	.	.
4r	4a-X'	.	.	.
=20	=20	=20	=20	=20
(>2B-	4b-'	4ee-]	4gg-]	.
.	4r	4dd'	4ff'	.
8A-XL	4r	4een'	4ggn'	.
8GJ)	.	.	.	.
=21	=21	=21	=21	=21
4F'	4f'	[2.ff	[2aa-X	.
4A-X'	4a-X'	.	.	.
4B-'	4b-'	.	.	.
=22	=22	=22	=22	=22
.	.	.	4aa-]	.
(>2c	(2cc	4ff]	4gg'	.
.	.	4ee'	4aa-X'	.
8B-L	8b-L	(>4ff'	.	.
8A-XJ)	8a-XJ)	.	.	.
=23	=23	=23	=23	=23
.	.	.	[2.bb-	.
(>4G	(>4g	[2.gg	.	.
4F	4f	.	.	.
4E	4e	.	.	.
=24	=24	=24	=24	=24
.	.	.	(4bb-]	.
4F	4f	4gg]	4aa-X)	.
4D-X	4d-X	4ff)	4aa-'	.
4BBn)	4Bn)	4ff'	.	.
=25	=25	=25	=25	=25
.	.	.	4gg	.
4C'	4c'	4ee	4r	.
.	.	.	16qqbbn/	.
4c'	4cc'	4r	4ccc'	.
4r	4r	4r	.	.
=26	=26	=26	=26	=26
.	.	.	4aa-X	.
4C'	4c'	4ff	4r	.
.	.	.	16qqbbn/	.
4c'	4cc'	4r	4ccc'	.
4r	4r	4r	.	.
=27	=27	=27	=27	=27
.	.	.	4gg	.
4C'	4c'	4ee	4r	.
.	.	.	16qqbbn/	.
4c'	4cc'	4r	4ccc'	.
4r	4r	4r	.	.
=28	=28	=28	=28	=28
.	.	.	4aa-X	.
4C'	4c'	4f	4r	.
.	.	.	16qqbbn/	.
4c'	4cc'	4r	4ccc'	.
4r	4r	4r	.	.
=29	=29	=29	=29	=29
.	.	.	4gg	.
4C'	4e'	4c'	4r	.
4r	4r	4e'	4r	.
4r	4r	4f'	.	.
=30	=30	=30	=30	=30
.	.	.	4c'	.
4G'	4E'	4g'	4e'	.
4E'	4c'	4r	4f'	.
4D'	4d'	4r	.	.
=31	=31	=31	=31	=31
.	.	.	4g'	.
4C'	4e'	4cc'	4r	.
4r	4r	4ee'	4r	.
4r	4r	4ff'	.	.
=32	=32	=32	=32	=32
.	.	.	4cc'	.
4GG'	4B-'	4gg'	4ee'	.
4EE'	4G'	4r	4ff'	.
4DD'	4F'	4r	.	.
=33	=33	=33	=33	=33
.	.	.	4gg'	.
4CC'	4E'	4e'	4r	.
4r	4r	4g'	4r	.
4r	4r	4a'	.	.
=34	=34	=34	=34	=34
.	.	.	4e'	.
4G'	4b-'	4b-'	4g'	.
4E'	4g'	4r	4a'	.
4D'	4f'	4r	.	.
=35	=35	=35	=35	=35
.	.	.	4b-'	.
4C'	4e'	4ee'	4r	.
4r	4r	4gg'	4r	.
4r	4r	4aa'	.	.
=36	=36	=36	=36	=36
.	.	.	4r	.
4C'	4r	4bb-'	4e	.
4BB-'	4c	4G	4e	.
4GG'	4c	4G	.	.
=37	=37	=37	=37	=37
!	!	!	!LO:TX:b:Bi:t=Cresc.	!
.	.	.	[2.f	.
!LO:TX:b:Bi:t=Cresc.	!LO:TX:b:Bi:t=Cresc.	!LO:TX:b:Bi:t=Cresc.	!	!
4FF'	2c	(<2A	.	.
4AA'	.	.	.	.
4BBn'	[4d	4A-X	.	.
=38	=38	=38	=38	=38
.	.	.	4f]	.
(<2C	4d]	2G)	4e'	.
.	4c'	.	4f#X'	.
8BB-XL	4d'	[4c	.	.
8AAJ)	.	.	.	.
=39	=39	=39	=39	=39
.	.	.	[2g	.
4GG	2d	(<4c]	.	.
4BBn'	.	4Bn	.	.
4C#X'	[4e	4B-X)	.	.
=40	=40	=40	=40	=40
.	.	.	4g]	.
.	.	.	4f#X'	.
(>2D	4e]	2A	4g#X'	.
.	4d'	.	.	.
8CL	4e'	[4d	.	.
8BBnJ)	.	.	.	.
=41	=41	=41	=41	=41
.	.	.	2a	.
(>4AA	2e	(<4d]	4bn	.
4C	.	4c	.	.
4E	[4e	4g#X	.	.
=42	=42	=42	=42	=42
.	.	.	4cc'	.
.	.	.	4r	.
4A')	4e']	4a'	4r	.
4r	4r	4r	.	.
4r	4r	4r	.	.
=43	=43	=43	=43	=43
.	.	.	(2dd	.
(<4D	(>2f	(>2a	4ee)	.
4F	.	.	.	.
4A	4a)	4cc#X)	.	.
=44	=44	=44	=44	=44
.	.	.	4ff'	.
.	.	.	4r	.
4d')	4a'	4dd'	4r	.
4r	4r	4r	.	.
4r	4r	4r	.	.
=45	=45	=45	=45	=45
.	.	.	(2ff	ppp
(<4F	(2a	(2cc	4gg	.
4A	.	.	.	.
4c	4cc)	4ee	.	.
=46	=46	=46	=46	=46
.	.	.	4aa')	.
.	.	.	4r	.
4f')	4cc'	4ff')	4r	.
4r	4r	4r	.	.
4r	4r	4r	.	.
=47	=47	=47	=47	=47
.	.	.	2.ggT	.
(2.c	(>2.b-	2.eet	.	.
.	.	.	(16qqff/LL	.
.	.	.	16qqgg/JJ)	.
.	.	(16qqdd/LL	.	.
.	.	16qqee/JJ)	.	.
=48	=48	=48	=48	=48
.	.	.	4aa	.
.	.	.	4r	.
4f)	4a)	4ff	4r	.
4r	4r	4r	.	.
4r	4r	4r	.	.
=49	=49	=49	=49	=49
.	.	.	2.gT	.
(>2.C	2.B-T	2.et	.	.
.	.	.	(16qqf/LL	.
.	.	.	16qqg/JJ)	.
.	(16qqA/LL	(16qqd/LL	.	.
.	16qqB-/JJ)	16qqe/JJ)	.	.
=50	=50	=50	=50	=50
.	.	.	4f	.
.	.	.	4r	.
4F)	4A	4f	4r	.
4r	4r	4r	.	.
4r	4r	4r	.	.
=51	=51	=51	=51	=51
.	.	.	4r	.
.	.	.	2e	.
2.GGT	2.GT	4r	.	.
.	.	2B-	.	.
!	!	!	!	!
(16qqFF/LL	(16qqF/LL	.	.	.
16qqGG/JJ)	16qqG/JJ)	.	.	.
=52	=52	=52	=52	=52
.	.	.	4f)	.
.	.	.	4cc'	.
4FF	4F	4A)	4cc'	.
4r	4r	4r	.	.
4r	4r	4r	.	.
=53	=53	=53	=53	=53
.	.	.	4r	.
.	.	.	2e	.
2.GGT	2.GT	4r	.	.
.	.	2B-	.	.
!	!	!	!	!
(16qqFF/LL	(16qqF/LL	.	.	.
16qqGG/JJ)	16qqG/JJ)	.	.	.
=54	=54	=54	=54	=54
.	.	.	4f)	.
.	.	.	4ff'	.
4FF	4F	4A)	4ff'	.
4r	4r	4r	.	.
4r	4r	4r	.	.
=55	=55	=55	=55	=55
.	.	.	4r	.
.	.	.	(<2e	.
2.GGT	2.GT	4r	.	.
.	.	(<2B-	.	.
(16qqFF/LL	(16qqF/LL	.	.	.
16qqGG/JJ)	16qqG/JJ)	.	.	.
=56	=56	=56	=56	=56
.	.	.	4f)	.
.	.	.	(4ccc'	.
4FF	4F	4A)	4ccc')	.
4r	4r	(4cc'	.	.
4r	4r	4cc')	.	.
=57	=57	=57	=57	=57
.	.	.	2.ee-XT	sf
4AA	4C	2.e-X'T	.	.
.	.	.	16qqdd/LL	.
.	.	.	16qqee-/JJ	.
4A	4f#X	.	.	.
4A	4f#	.	.	.
.	.	(16qqd/LL	.	.
.	.	16qqe-/JJ)	.	.
=58	=58	=58	=58	=58
.	.	.	4dd	.
.	.	.	4r	.
4B-	4g	4d	4r	.
4BB-	4d	4r	.	.
4BB-	4d	4r	.	.
=59	=59	=59	=59	=59
.	.	.	4ee	.
.	.	.	4r	.
4r	4r	4e	4r	.
4C	4B-	4r	.	.
4C	4B-	4r	.	.
=60	=60	=60	=60	=60
.	.	.	4ff	.
.	.	.	4ccc	.
4F	4A	4f	4ccc	.
4r	4r	(4cc'	.	.
4r	4r	4cc')	.	.
=61	=61	=61	=61	=61
.	.	.	2.ee-XT	.
4AA	4C	2.e-X'T	.	.
.	.	.	16qqdd/LL	sf
.	.	.	16qqee-/JJ	.
4A	4f#X	.	.	.
4A	4f#	.	.	.
.	.	(16qqd/LL	.	.
.	.	16qqe-/JJ)	.	.
=62	=62	=62	=62	=62
.	.	.	4dd	.
.	.	.	4r	.
4B-	4g	4d	4r	.
4BB-	4d	4r	.	.
4BB-	4d	4r	.	.
=63	=63	=63	=63	=63
.	.	.	4ee	.
.	.	.	4r	.
4r	4r	4e	4r	.
4C	4B-	4r	.	.
4C	4B-	4r	.	.
=64	=64	=64	=64	=64
!	!	!	!LO:TX:b:Bi:t=Cresc.	!
.	.	.	[2.ff	.
!LO:TX:b:Bi:t=Cresc.	!LO:TX:b:Bi:t=Cresc.	!LO:TX:b:Bi:t=Cresc.	!	!
4F'	4A'	(>2a	.	.
4A'	(4c'	.	.	.
4Bn'	4d')	4a-X	.	.
=65	=65	=65	=65	=65
.	.	.	4ff]	.
.	.	.	4ee'	.
(>2c	(2e	2g	4ff#X'	.
8B-L)	8dL	4cc)	.	.
8AJ	8cJ)	.	.	.
=66	=66	=66	=66	=66
.	.	.	[2.gg	.
4G'	(4d'	(>4b-'	.	.
4B-	4b-'	4dd')	.	.
4c#X'	4a')	[4ee	.	.
=67	=67	=67	=67	=67
.	.	.	4gg]	.
.	.	.	4ff#X'	.
(>2d	2a	4ee]	4gg#X'	.
.	.	(4dd'	.	.
8cL)	4e'	4dd')	.	.
8BnJ	.	.	.	.
=68	=68	=68	=68	=68
.	.	.	[2.aa	.
(>4A	(>4e	(>4cc	.	.
4g	4a	4cc#X	.	.
4f	4bn	4dd	.	.
=69	=69	=69	=69	=69
.	.	.	2.aa_	.
4e	4cc#X	4ee	.	.
4d	4dd	4ff	.	.
4c#X	4ee	4gg	.	.
=70	=70	=70	=70	=70
.	.	.	(4aa']	.
.	.	.	4aa	f
4d')	4dd)	4ff')	4bb-	.
4c	4e-X	4ff#X	.	.
4B-	4d	4gg	.	.
=71	=71	=71	=71	=71
.	.	.	4ccc	.
.	.	.	4ddd	.
4A	4c	4aa	4eee-X)	.
4G	4B-	4bb-	.	.
4F#X	4A	4ccc)	.	.
=72	=72	=72	=72	=72
.	.	.	(>4ddd	.
.	.	.	4bb-	.
(>4G)	4B-)	(4bb-	4aa)	.
4B-	(4b-	4gg	.	.
4Bn	4bn	4ffn	.	.
=73	=73	=73	=73	=73
.	.	.	4gg'	.
.	.	.	(4ddd	.
4c')	4cc)	4ee')	4ccc)	.
4EE	(4E	4bb-	.	.
4FF	4F	4aa	.	.
=74	=74	=74	=74	=74
.	.	.	(>4bb-	.
.	.	.	4aa	.
4GG	4G	4gg	4gg	.
4AA	4A	4ff	.	.
(>4BB-	4B-	4ee	.	.
=75	=75	=75	=75	=75
.	.	.	4ff	.
.	.	.	4ee	.
4C	4c	4dd	4dd	.
4D	4d	4cc	.	.
4E	4e)	4b-	.	.
=76	=76	=76	=76	=76
.	.	.	4cc	.
.	.	.	4b-	.
4F	4f	4a)	4a	.
4G	4c	4e	.	.
4A	(4c	4f	.	.
=77	=77	=77	=77	=77
.	.	.	4g)	.
.	.	.	4b-	.
4BB-	4B-)	(4d	4e'	.
4GG)	4B-'	4g)	.	.
4C'	4G'	4B-'	.	.
=78	=78	=78	=78	=78
.	.	.	4f'	.
.	.	.	4a'	.
4FF'	4A'	4A'	4bn'	.
4r	4r	4A'	.	.
[4F	[4A-X	4Bn	.	.
=79	=79	=79	=79	=79
.	.	.	2.cc	.
4F]	4A-]	2.c	.	.
4E'	4G'	.	.	.
4C'	4E'	.	.	.
=80	=80	=80	=80	=80
.	.	.	4ff'	.
.	.	.	4aa'	.
4F	4An	4f'	4bbn'	.
4r	4r	4a'	.	.
[4FF	[4A-X	4bn	.	.
=81	=81	=81	=81	=81
.	.	.	[2.ccc	.
4FF']	4A-]	[2.cc	.	.
4EE'	4G'	.	.	.
4CC'	4E'	.	.	.
=82	=82	=82	=82	=82
.	.	.	4ccc]	.
.	.	.	[2ccc	.
4FF'	4An'	4cc]	.	.
4EE'	4G'	[2cc	.	.
4CC'	4E'	.	.	.
=83	=83	=83	=83	=83
.	.	.	4ccc]	sf
.	.	.	[2ccc	sf
4FF'	4A'	4cc]	.	.
4E'	4g'	[2cc	.	.
4C'	4e'	.	.	.
=84	=84	=84	=84	=84
.	.	.	4ccc']	.
.	.	.	4aa'	.
4F'	4a'	4cc]	4aa'	.
4FF'	4c'	4a'	.	.
4FF'	4c'	4a'	.	.
=85	=85	=85	=85	=85
.	.	.	4ff'	.
.	.	.	4r	.
4FF'	4A'	4f'	4r	.
4r	4r	4r	.	.
4r	4r	4r	.	.
=86:|!	=86:|!	=86:|!	=86:|!	=86:|!
.	.	.	8qqbn/	ff
.	.	.	4cc'	.
.	.	.	4r	.
.	.	16qqbn/	.	.
4C'	4c'	4cc'	4c'	.
4r	4r	4r	.	.
4CC'	4C'	4c'	.	.
=87	=87	=87	=87	=87
.	.	.	8qqbn/	.
.	.	.	4cc'	.
.	.	.	4r	.
.	.	16qqbn/	.	.
4C'	4c'	4cc'	4c'	.
4r	4r	4r	.	.
4CC'	4C'	4c'	.	.
=88	=88	=88	=88	=88
.	.	.	8qqbn/	.
.	.	.	4cc'	.
.	.	.	4c'	.
.	.	16qqbn/	.	.
4C'	4c'	4cc'	4cc'	.
4CC'	4C'	4c'	.	.
4C'	4c'	4cc	.	.
=89	=89	=89	=89	=89
.	.	.	4c'	.
.	.	.	4cc'	.
4CC'	4C'	4c'	4c'	.
4C'	4c'	4cc'	.	.
4CC'	4C'	4c'	.	.
=90	=90	=90	=90	=90
.	.	.	(>8d-XL	p
.	.	.	8e-X	.
.	.	.	8d-	.
.	.	.	8c	.
2.DD-X	2.D-X	2.A-X 2.f	8d-	.
.	.	.	8e-J)	.
=91	=91	=91	=91	=91
.	.	.	(>8fL	sf
.	.	.	8g-X	.
.	.	.	8a-X	.
.	.	.	8b-	.
[2.DD-X	[2.d-X	[2.A-X [2.f	8cc	.
.	.	.	8dd-XJ	.
=92	=92	=92	=92	=92
.	.	.	8ee-XL	.
.	.	.	8ff	.
.	.	.	8gg-X	.
.	.	.	8ff	.
2.DD-_	2.d-_	2.A-_ 2.f_	8ee-	.
.	.	.	8dd-XJ)	.
=93	=93	=93	=93	=93
.	.	.	(>8ccL	.
.	.	.	8b-	.
.	.	.	8a-X	.
.	.	.	8g-X	.
2DD-_	(>2d-]	(<2A-] 2f]	8f	.
.	.	.	8e-XJ)	.
4DD-']	4c')	4A-X') 4g-X	.	.
=94	=94	=94	=94	=94
.	.	.	(>8d-XL	.
.	.	.	8e-X	.
.	.	.	8d-	.
.	.	.	8c	.
2.DD-X	2.d-X	2.A-X 2.f	8d-	.
.	.	.	8fJ)	.
=95	=95	=95	=95	=95
.	.	.	(>8fL	.
.	.	.	8g-X	.
.	.	.	8a-X	.
.	.	.	8b-	.
[2.DD-X	[2.d-X	[2.A-X [2.f	8cc	.
.	.	.	8dd-XJ	.
=96	=96	=96	=96	=96
.	.	.	8ee-XL	.
.	.	.	8ff	.
.	.	.	8gg-X	.
.	.	.	8ff	.
2.DD-_	2.d-_	2.A-_ 2.f_	8ee-	.
.	.	.	8dd-XJ	.
=97	=97	=97	=97	=97
.	.	.	8ccL	.
.	.	.	8b-	.
.	.	.	8a-X	.
.	.	.	8g-X	.
2DD-]	(>2d-]	2A-_ 2f]	8f	.
.	.	.	8e-XJ)	.
4DD-X	4c')	4A-'] 4g-X	.	.
=98	=98	=98	=98	=98
.	.	.	(<8d-XL	.
.	.	.	8f	.
.	.	.	8e	.
.	.	.	8f	.
4DD-X'	(>4d-X'	(<4A-X' 4f	8e	.
.	.	.	8fJ)	.
4D-X'	4d-'	4d-X'	.	.
4D-'	4d-')	4d-')	.	.
=99	=99	=99	=99	=99
.	.	.	(<8d-XL	.
.	.	.	8f	.
.	.	.	8c	.
.	.	.	8f	.
(<4D-X	(>4d-X	(<4d-X	8Bn	.
.	.	.	8fJ)	.
4C	4c	4c	.	.
4BBn)	4Bn)	4Bn)	.	.
=100	=100	=100	=100	=100
.	.	.	(<8cL	.
.	.	.	8f	.
.	.	.	8a-X	.
.	.	.	8cc	.
4C	4c	4c	8c	.
.	.	.	8ccJ)	.
4r	4r	4r	.	.
4CC	4C	4c	.	.
=101	=101	=101	=101	=101
.	.	.	4f	.
.	.	.	4r	.
4FF	4F	4f	4r	.
4r	4r	4r	.	.
4r	4r	4r	.	.
=102:|!	=102:|!	=102:|!	=102:|!	=102:|!
.	.	.	[2.ee-X	pp
2.r	4f'	[2.an	.	.
.	4r	.	.	.
.	4F'	.	.	.
=103	=103	=103	=103	=103
.	.	.	2.ee-_	.
2.r	4f'	2.a_	.	.
.	4r	.	.	.
.	4F'	.	.	.
=104	=104	=104	=104	=104
.	.	.	2.ee-_	.
2.r	4f'	2.a_	.	.
.	4F'	.	.	.
.	4f'	.	.	.
=105	=105	=105	=105	=105
.	.	.	2.ee-]	.
2.r	4F'	2.a]	.	.
.	4f'	.	.	.
.	4F'	.	.	.
=106	=106	=106	=106	=106
.	.	.	[2.ddn	.
4B-'	[2.f	[2.a-X	.	.
4r	.	.	.	.
4BB-'	.	.	.	.
=107	=107	=107	=107	=107
.	.	.	2.dd_	.
4B-'	2.f_	2.a-_	.	.
4r	.	.	.	.
4BB-'	.	.	.	.
=108	=108	=108	=108	=108
.	.	.	2.dd_	.
4B-'	2.f_	2.a-_	.	.
4BB-'	.	.	.	.
4B-'	.	.	.	.
=109	=109	=109	=109	=109
.	.	.	2.dd]	.
4BB-'	2.f]	2.a-]	.	.
4B-'	.	.	.	.
4BB-'	.	.	.	.
=110	=110	=110	=110	=110
.	.	.	(>2.dd-X	.
2.r	4g'	[2.b-	.	.
.	4G'	.	.	.
.	4g'	.	.	.
=111	=111	=111	=111	=111
.	.	.	[2.g) [2.cc	.
4En'	2.r	2.b-]	.	.
4EEn'	.	.	.	.
4E	.	.	.	.
=112	=112	=112	=112	=112
.	.	.	2.g] 2.cc]	.
2.r	4f'	(<2.a-X	.	.
.	4F'	.	.	.
.	4f'	.	.	.
=113	=113	=113	=113	=113
.	.	.	2.f 2.cc	.
4F'	2.r	2.a)	.	.
4FF'	.	.	.	.
4F'	.	.	.	.
=114	=114	=114	=114	=114
.	.	.	4e 4cc	.
.	.	.	4r	.
4C'	4c'	4g	4r	.
4r	4r	4r	.	.
4CC'	4C'	4r	.	.
=115	=115	=115	=115	=115
.	.	.	2.r	pp
4C'	4c'	2.r	.	.
4r	4r	.	.	.
4CC'	4C'	.	.	.
=116	=116	=116	=116	=116
.	.	.	2.r	.
4C'	4c'	2.r	.	.
4CC'	4C'	.	.	.
4C'	4c'	.	.	.
=117	=117	=117	=117	=117
.	.	.	2.r	.
4CC'	4C'	2.r	.	.
4C'	4c'	.	.	.
4CC'	4C'	.	.	.
=118	=118	=118	=118	=118
.	.	.	8qqb-/	p
.	.	.	4cc'	.
.	.	.	4r	.
.	.	16qqbn/	.	.
4C'	4c'	4cc'	4c'	.
4r	4r	4r	.	.
4CC'	4C'	4c'	.	.
=119	=119	=119	=119	=119
!	!	!	!LO:TX:b:Bi:t=Cresc.	!
.	.	.	8qqb-/	.
.	.	.	4cc'	.
.	.	.	4r	.
!LO:TX:b:Bi:t=Cresc.	!LO:TX:b:Bi:t=Cresc.	!LO:TX:b:Bi:t=Cresc.	!	!
.	.	16qqbn/	.	.
4C'	4c'	4cc'	4c'	.
4r	4r	4r	.	.
4CC'	4C'	4c'	.	.
=120	=120	=120	=120	=120
.	.	.	8qqb-/	.
.	.	.	4cc'	.
.	.	.	4c'	.
.	.	16qqbn/	.	.
4C'	4c'	4cc'	4cc'	.
4CC'	4C'	4c'	.	.
4C'	4c'	4cc'	.	.
=121	=121	=121	=121	=121
.	.	.	4c#X'	.
.	.	.	4cc#X'	.
4CC#X'	4C#X'	4c#X'	4c#'	.
4C#X'	4c#X'	4cc#X'	.	.
4CC#'	4C#'	4c#'	.	.
=122	=122	=122	=122	=122
.	.	.	(<8dL	.
.	.	.	8g	.
.	.	.	8b-	.
.	.	.	8g	.
2.DD	2.D	2.d	8dd	.
.	.	.	8b-J)	.
=123	=123	=123	=123	=123
.	.	.	(>8ggL	fp
.	.	.	8dd	.
.	.	.	8bb-	.
.	.	.	8aa	.
[2.DD	[2.D [2.G	[2.B-	8gg	.
.	.	.	8ffJ	.
=124	=124	=124	=124	=124
.	.	.	8ee-XL	.
.	.	.	8dd	.
.	.	.	8cc	.
.	.	.	8b-	.
2.DD_	2.D_ 2.G]	2.B-_	8a	.
.	.	.	8gJ)	.
=125	=125	=125	=125	=125
.	.	.	(>8f#XL	.
.	.	.	8g	.
.	.	.	8f#	.
.	.	.	8g	.
2DD_	2D_ 2G	(<2B-]	8a	.
.	.	.	8f#J)	.
4DD']	4D'] 4A	4c')	.	.
=126	=126	=126	=126	=126
.	.	.	(<8dL	.
.	.	.	8g	.
.	.	.	8b-	.
.	.	.	8g	.
2.DD	2.D 2.G	2.B-	8dd	.
.	.	.	8b-J)	.
=127	=127	=127	=127	=127
.	.	.	(>8ggL	fp
.	.	.	8dd	.
.	.	.	8bb-	.
.	.	.	8aa	.
[2.DD	[2.D [2.G	[2.B-	8gg	.
.	.	.	8ffJ	.
=128	=128	=128	=128	=128
.	.	.	8ee-XL	.
.	.	.	8dd	.
.	.	.	8cc	.
.	.	.	8b-	.
2.DD_	2.D_ 2.G_	2.B-_	8a	.
.	.	.	8gJ	.
=129	=129	=129	=129	=129
.	.	.	8f#XL	.
.	.	.	8g	.
.	.	.	8f#	.
.	.	.	8g	.
2DD_	2D] 2G]	(<2B-]	8a)	.
.	.	.	8f#J	.
4DD']	4D 4A	4c')	.	.
=130	=130	=130	=130	=130
.	.	.	(>8G	.
.	.	.	8bnL	.
.	.	.	8dd	.
.	.	.	8b	.
2.GG	2.D	2.Bn	8ff	.
.	.	.	8ddJ)	.
=131	=131	=131	=131	=131
.	.	.	(>8bbnL	fp
.	.	.	8ff	.
.	.	.	8ddd	.
.	.	.	8ccc	.
[2.GG	[2.D	[2.Bn	8bb	.
.	.	.	8aaJ)	.
=132	=132	=132	=132	=132
.	.	.	(>8ggL	.
.	.	.	8ff	.
.	.	.	8ee	.
.	.	.	8dd	.
2.GG_	2.D_	[2.B-	8ff	.
.	.	.	8ddJ	.
=133	=133	=133	=133	=133
.	.	.	8ccL	.
.	.	.	8bn	.
.	.	.	8dd	.
.	.	.	8b	.
2GG_	(<2D]	(<2B-]	8cc	.
.	.	.	8eeJ)	.
4GG']	4E')	4c')	.	.
=134	=134	=134	=134	=134
.	.	.	(>8G	.
.	.	.	8bnL	.
.	.	.	8dd	.
.	.	.	8b	.
2.GG	2.D	2.Bn	8ff	.
.	.	.	8ddJ)	.
=135	=135	=135	=135	=135
.	.	.	(>8bbnL	fp
.	.	.	8ff	.
.	.	.	8ddd	.
.	.	.	8ccc	.
[2.GG	[2.D	[2.Bn	8bb	.
.	.	.	8aaJ	.
=136	=136	=136	=136	=136
.	.	.	8ggL	.
.	.	.	8ff	.
.	.	.	8ee	.
.	.	.	8dd	.
2.GG_	2.D_	[2.B-	8ff	.
.	.	.	8ddJ	.
=137	=137	=137	=137	=137
.	.	.	8ccL	.
.	.	.	8bn	.
.	.	.	8dd	.
.	.	.	8b	.
(<2GG]	2D]	(2B-]	8cc	.
.	.	.	8eeJ)	.
4C')	4E'	4c')	.	.
=138	=138	=138	=138	=138
.	.	.	(>8c	.
.	.	.	8ccL	.
.	.	.	8ee	.
.	.	.	8cc	.
2.CC	2.C	2.G 2.e	8gg	.
.	.	.	8eeJ)	.
=139	=139	=139	=139	=139
.	.	.	(>8bb-L	.
.	.	.	8aa	fp
.	.	.	8gg	.
.	.	.	8ff	.
[2.CC	[2.C	[2.G [2.e	8ee	.
.	.	.	8ddJ	.
=140	=140	=140	=140	=140
.	.	.	8ccL	fp
.	.	.	8b-	.
.	.	.	8a	.
.	.	.	8g	.
2.CC_	2.C_	2.G_ 2.e_	8b-	.
.	.	.	8gJ	.
=141	=141	=141	=141	=141
.	.	.	8fL	.
.	.	.	8e	.
.	.	.	8g	.
.	.	.	8e	.
(<2CC]	(<2C]	(<2G] 2e]	8f	.
.	.	.	8aJ)	.
4C')	4c')	4A') 4f	.	.
=142	=142	=142	=142	=142
.	.	.	(>8cL	.
.	.	.	8cc	.
.	.	.	8ee	.
.	.	.	8cc	.
2CC	2.C	2.G 2.e	8gg	.
.	.	.	8eeJ)	.
=143	=143	=143	=143	=143
.	.	.	8bb-L	fp
.	.	.	8aa	.
[2.CC	.	.	8gg	.
.	.	.	8ff	.
.	[2.C	[2.G [2.e	8ee	.
.	.	.	8ddJ	.
=144	=144	=144	=144	=144
.	.	.	8ccL	.
.	.	.	8bn	.
4CC]	.	.	8dd	.
.	.	.	8cc	.
4r	4C]	4G] 4e]	8b	.
.	.	.	8ddJ	.
4r	4r	4r	.	.
.	4r	4r	.	.
=145	=145	=145	=145	=145
.	.	.	8ccL	.
.	.	.	8bn	.
2.r	.	.	8dd	.
.	.	.	8cc	.
.	2.r	2.r	8b-X	.
.	.	.	8gJ	.
==	==	==	==	==
*-	*-	*-	*-	*-
!!!system-decoration: [(s1,s2,s3,s4)]
!!!RDF**kern: > = above
!!!RDF**kern: < = below
